icon/lg/arduino.svg

<svg width="256" height="174" xmlns="http://www.w3.org/2000/svg" preserveAspectRatio="xMidYMid"><g fill="#00979C"><path d="M14.044 130.399.919 173.242h10.328l2.369-7.983h12.803l2.305 7.983h11.231l-13.124-42.843H14.044Zm2.166 26.242 3.899-13.325 3.855 13.325H16.21ZM64.632 153.696a8.386 8.386 0 0 0-.474-.47c.323-.122.638-.252.946-.394a10.782 10.782 0 0 0 3.255-2.28 10.007 10.007 0 0 0 2.148-3.389c.5-1.287.754-2.766.754-4.393 0-2.243-.405-4.183-1.201-5.768a10.17 10.17 0 0 0-3.461-3.924c-1.447-.97-3.207-1.671-5.232-2.082-1.946-.395-4.138-.597-6.513-.597H41.456v42.843h10.275v-16.74h.305c1.124 0 2.061.247 2.864.757.797.505 1.408 1.25 1.871 2.282l6.21 13.701h11.955l-7.545-15.283c-.914-1.856-1.817-3.249-2.759-4.263Zm-4.469-8.219a3.95 3.95 0 0 1-1.26 1.418c-.581.408-1.302.721-2.146.931-.891.223-1.908.335-3.024.335h-2.002v-9.019h2.258c2.352 0 4.1.369 5.195 1.098.954.635 1.418 1.705 1.418 3.273 0 .758-.144 1.401-.439 1.964ZM105.04 135.487c-1.73-1.739-3.912-3.041-6.485-3.868-2.508-.809-5.46-1.22-8.773-1.22H76.193v42.843h11.829c3.817 0 7.156-.52 9.923-1.545 2.81-1.039 5.157-2.547 6.974-4.481 1.814-1.93 3.166-4.288 4.016-7.007.834-2.662 1.256-5.656 1.256-8.899 0-3.535-.423-6.636-1.259-9.217-.854-2.644-2.163-4.866-3.892-6.606Zm-8.401 26.037c-1.784 1.982-4.372 2.945-7.912 2.945h-2.26v-25.297h2.803c1.981 0 3.644.28 4.941.833 1.258.535 2.231 1.291 2.975 2.309.76 1.044 1.311 2.354 1.637 3.891.343 1.626.518 3.51.518 5.6 0 4.458-.909 7.728-2.702 9.719ZM134.942 157.654c0 1.477-.136 2.736-.407 3.742-.252.939-.623 1.706-1.105 2.279a3.893 3.893 0 0 1-1.726 1.189c-.761.272-1.734.409-2.894.409-1.227 0-2.239-.157-3.008-.468a4.505 4.505 0 0 1-1.817-1.31c-.486-.585-.834-1.319-1.035-2.185-.224-.956-.337-2.081-.337-3.347v-27.564h-10.274v28.028c0 2.316.287 4.442.851 6.318.587 1.949 1.555 3.634 2.878 5.005 1.323 1.37 3.055 2.43 5.148 3.147 2.034.701 4.492 1.056 7.305 1.056 2.515 0 4.823-.355 6.857-1.056 2.08-.713 3.873-1.794 5.33-3.214 1.458-1.422 2.589-3.212 3.362-5.32.76-2.07 1.146-4.494 1.146-7.205v-26.759h-10.274v27.255M150.47 139.018h9.22v25.544h-9.22v8.68h28.843v-8.68h-9.22v-25.544h9.22v-8.619H150.47v8.619M207.905 154.811l-11.486-24.412H184.79v42.843h9.569v-24.876l11.547 24.876h11.57v-42.843h-9.571v24.412M250.738 135.468c-3-3.815-7.497-5.749-13.364-5.749-2.51 0-4.904.445-7.116 1.322-2.243.889-4.225 2.273-5.892 4.117-1.652 1.828-2.964 4.179-3.897 6.986-.923 2.771-1.391 6.094-1.391 9.878 0 6.99 1.487 12.428 4.419 16.166 3 3.826 7.497 5.765 13.364 5.765 2.511 0 4.907-.445 7.119-1.322 2.244-.89 4.225-2.275 5.89-4.116 1.65-1.827 2.962-4.177 3.898-6.986.921-2.77 1.389-6.093 1.389-9.879 0-7.01-1.487-12.455-4.419-16.182Zm-6.762 22.261c-.294 1.581-.753 2.914-1.364 3.963-.58.999-1.298 1.731-2.193 2.236-.892.503-2.003.758-3.301.758-2.568 0-4.358-.956-5.472-2.921-1.224-2.159-1.845-5.561-1.845-10.115 0-2.138.154-4.059.46-5.706.294-1.578.756-2.909 1.376-3.958.59-1.003 1.31-1.737 2.201-2.244.879-.501 1.982-.755 3.28-.755 2.588 0 4.383.954 5.486 2.916 1.215 2.16 1.831 5.565 1.831 10.119 0 2.144-.154 4.064-.459 5.707ZM240.315 5.74h1.823v4.793h1.293V5.74h1.838V4.55h-4.954v1.19M249.768 4.55l-1.247 4.078-1.29-4.078h-1.687v5.983h1.216V6.711l1.206 3.822h1.11l1.144-3.723v3.723h1.21V4.55h-1.662M190.275 120.327c-16.288 0-30.214-5.492-42.47-16.725-7.571-6.937-13.813-15.436-19.556-24.273-5.742 8.837-11.985 17.336-19.555 24.273-13.169 12.069-28.267 17.511-46.149 16.634C28.444 120.088.747 93.176.747 60.118.747 26.969 28.596 0 62.827 0c18.732 0 34.503 6.199 48.21 18.95 6.584 6.125 12.142 13.23 17.212 20.664 5.07-7.434 10.629-14.539 17.212-20.664C159.168 6.199 174.939 0 193.671 0c34.232 0 62.08 26.969 62.08 60.118 0 33.058-27.696 59.97-61.798 60.118a74.818 74.818 0 0 1-3.678.091ZM140.72 59.316c6.794 11.023 13.388 21.283 21.42 28.643 9.066 8.309 18.622 11.727 30.975 11.074l.556-.015c22.531 0 40.862-17.45 40.862-38.9 0-21.449-18.331-38.9-40.862-38.9-13.301 0-24.028 4.216-33.758 13.267-7.267 6.761-13.267 15.423-19.193 24.831ZM62.827 21.218c-22.531 0-40.862 17.451-40.862 38.9 0 21.45 18.331 38.9 40.862 38.9l.557.015c12.354.653 21.908-2.765 30.974-11.074 8.032-7.36 14.627-17.62 21.42-28.643-5.926-9.408-11.926-18.07-19.192-24.831-9.731-9.051-20.458-13.267-33.759-13.267Z"/><path d="M196.477 52.407V40.901h-11.976v11.506h-11.505v11.918h11.505v11.591h11.976V64.325h11.506V52.407h-11.506M45.599 52.263h37.817v12.292H45.599V52.263Z"/></g></svg>

<?xml version="1.0" encoding="UTF-8" standalone="no"?>
<svg viewBox="0 0 256 174" version="1.1" xmlns="http://www.w3.org/2000/svg" xmlns:xlink="http://www.w3.org/1999/xlink" preserveAspectRatio="xMidYMid" height="1em" width="1em">
  <g fill="#00979C">
    <path d="M14.044,130.399 L0.919,173.242 L11.247,173.242 L13.616,165.259 L26.419,165.259 L28.724,173.242 L39.955,173.242 L26.831,130.399 L14.044,130.399 L14.044,130.399 Z M16.21,156.641 L20.109,143.316 L23.964,156.641 L16.21,156.641 L16.21,156.641 Z"/>
    <path d="M64.632,153.696 C64.477,153.53 64.319,153.373 64.158,153.226 C64.481,153.104 64.796,152.974 65.104,152.832 C66.354,152.258 67.449,151.489 68.359,150.552 C69.279,149.606 70.002,148.466 70.507,147.163 C71.007,145.876 71.261,144.397 71.261,142.77 C71.261,140.527 70.856,138.587 70.06,137.002 C69.255,135.399 68.09,134.079 66.599,133.078 C65.152,132.108 63.392,131.407 61.367,130.996 C59.421,130.601 57.229,130.399 54.854,130.399 L41.456,130.399 L41.456,173.242 L51.731,173.242 L51.731,156.502 L52.036,156.502 C53.16,156.502 54.097,156.749 54.9,157.259 C55.697,157.764 56.308,158.509 56.771,159.541 L62.981,173.242 L74.936,173.242 L67.391,157.959 C66.477,156.103 65.574,154.71 64.632,153.696 L64.632,153.696 Z M60.163,145.477 C59.866,146.043 59.454,146.507 58.903,146.895 C58.322,147.303 57.601,147.616 56.757,147.826 C55.866,148.049 54.849,148.161 53.733,148.161 L51.731,148.161 L51.731,139.142 L53.989,139.142 C56.341,139.142 58.089,139.511 59.184,140.24 C60.138,140.875 60.602,141.945 60.602,143.513 C60.602,144.271 60.458,144.914 60.163,145.477 L60.163,145.477 Z"/>
    <path d="M105.04,135.487 C103.31,133.748 101.128,132.446 98.555,131.619 C96.047,130.81 93.095,130.399 89.782,130.399 L76.193,130.399 L76.193,173.242 L88.022,173.242 C91.839,173.242 95.178,172.722 97.945,171.697 C100.755,170.658 103.102,169.15 104.919,167.216 C106.733,165.286 108.085,162.928 108.935,160.209 C109.769,157.547 110.191,154.553 110.191,151.31 C110.191,147.775 109.768,144.674 108.932,142.093 C108.078,139.449 106.769,137.227 105.04,135.487 L105.04,135.487 Z M96.639,161.524 C94.855,163.506 92.267,164.469 88.727,164.469 L86.467,164.469 L86.467,139.172 L89.27,139.172 C91.251,139.172 92.914,139.452 94.211,140.005 C95.469,140.54 96.442,141.296 97.186,142.314 C97.946,143.358 98.497,144.668 98.823,146.205 C99.166,147.831 99.341,149.715 99.341,151.805 C99.341,156.263 98.432,159.533 96.639,161.524 L96.639,161.524 Z"/>
    <path d="M134.942,157.654 C134.942,159.131 134.806,160.39 134.535,161.396 C134.283,162.335 133.912,163.102 133.43,163.675 C132.968,164.226 132.403,164.615 131.704,164.864 C130.943,165.136 129.97,165.273 128.81,165.273 C127.583,165.273 126.571,165.116 125.802,164.805 C125.063,164.505 124.469,164.076 123.985,163.495 C123.499,162.91 123.151,162.176 122.95,161.31 C122.726,160.354 122.613,159.229 122.613,157.963 L122.613,130.399 L112.339,130.399 L112.339,158.427 C112.339,160.743 112.626,162.869 113.19,164.745 C113.777,166.694 114.745,168.379 116.068,169.75 C117.391,171.12 119.123,172.18 121.216,172.897 C123.25,173.598 125.708,173.953 128.521,173.953 C131.036,173.953 133.344,173.598 135.378,172.897 C137.458,172.184 139.251,171.103 140.708,169.683 C142.166,168.261 143.297,166.471 144.07,164.363 C144.83,162.293 145.216,159.869 145.216,157.158 L145.216,130.399 L134.942,130.399 L134.942,157.654"/>
    <path d="M150.47,139.018 L159.69,139.018 L159.69,164.562 L150.47,164.562 L150.47,173.242 L179.313,173.242 L179.313,164.562 L170.093,164.562 L170.093,139.018 L179.313,139.018 L179.313,130.399 L150.47,130.399 L150.47,139.018"/>
    <path d="M207.905,154.811 L196.419,130.399 L184.79,130.399 L184.79,173.242 L194.359,173.242 L194.359,148.366 L205.906,173.242 L217.476,173.242 L217.476,130.399 L207.905,130.399 L207.905,154.811"/>
    <path d="M250.738,135.468 C247.738,131.653 243.241,129.719 237.374,129.719 C234.864,129.719 232.47,130.164 230.258,131.041 C228.015,131.93 226.033,133.314 224.366,135.158 C222.714,136.986 221.402,139.337 220.469,142.144 C219.546,144.915 219.078,148.238 219.078,152.022 C219.078,159.012 220.565,164.45 223.497,168.188 C226.497,172.014 230.994,173.953 236.861,173.953 C239.372,173.953 241.768,173.508 243.98,172.631 C246.224,171.741 248.205,170.356 249.87,168.515 C251.52,166.688 252.832,164.338 253.768,161.529 C254.689,158.759 255.157,155.436 255.157,151.65 C255.157,144.64 253.67,139.195 250.738,135.468 L250.738,135.468 Z M243.976,157.729 C243.682,159.31 243.223,160.643 242.612,161.692 C242.032,162.691 241.314,163.423 240.419,163.928 C239.527,164.431 238.416,164.686 237.118,164.686 C234.55,164.686 232.76,163.73 231.646,161.765 C230.422,159.606 229.801,156.204 229.801,151.65 C229.801,149.512 229.955,147.591 230.261,145.944 C230.555,144.366 231.017,143.035 231.637,141.986 C232.227,140.983 232.947,140.249 233.838,139.742 C234.717,139.241 235.82,138.987 237.118,138.987 C239.706,138.987 241.501,139.941 242.604,141.903 C243.819,144.063 244.435,147.468 244.435,152.022 C244.435,154.166 244.281,156.086 243.976,157.729 L243.976,157.729 Z"/>
    <path d="M240.315,5.74 L242.138,5.74 L242.138,10.533 L243.431,10.533 L243.431,5.74 L245.269,5.74 L245.269,4.55 L240.315,4.55 L240.315,5.74"/>
    <path d="M249.768,4.55 L248.521,8.628 L247.231,4.55 L245.544,4.55 L245.544,10.533 L246.76,10.533 L246.76,6.711 L247.966,10.533 L249.076,10.533 L250.22,6.81 L250.22,10.533 L251.43,10.533 L251.43,4.55 L249.768,4.55"/>
    <path d="M190.275,120.327 C173.987,120.327 160.061,114.835 147.805,103.602 C140.234,96.665 133.992,88.166 128.249,79.329 C122.507,88.166 116.264,96.665 108.694,103.602 C95.525,115.671 80.427,121.113 62.545,120.236 C28.444,120.088 0.747,93.176 0.747,60.118 C0.747,26.969 28.596,0 62.827,0 C81.559,0 97.33,6.199 111.037,18.95 C117.621,25.075 123.179,32.18 128.249,39.614 C133.319,32.18 138.878,25.075 145.461,18.95 C159.168,6.199 174.939,0 193.671,0 C227.903,0 255.751,26.969 255.751,60.118 C255.751,93.176 228.055,120.088 193.953,120.236 C192.714,120.297 191.487,120.327 190.275,120.327 L190.275,120.327 Z M140.72,59.316 C147.514,70.339 154.108,80.599 162.14,87.959 C171.206,96.268 180.762,99.686 193.115,99.033 L193.671,99.018 C216.202,99.018 234.533,81.568 234.533,60.118 C234.533,38.669 216.202,21.218 193.671,21.218 C180.37,21.218 169.643,25.434 159.913,34.485 C152.646,41.246 146.646,49.908 140.72,59.316 L140.72,59.316 Z M62.827,21.218 C40.296,21.218 21.965,38.669 21.965,60.118 C21.965,81.568 40.296,99.018 62.827,99.018 L63.384,99.033 C75.738,99.686 85.292,96.268 94.358,87.959 C102.39,80.599 108.985,70.339 115.778,59.316 C109.852,49.908 103.852,41.246 96.586,34.485 C86.855,25.434 76.128,21.218 62.827,21.218 L62.827,21.218 Z"/>
    <path d="M196.477,52.407 L196.477,40.901 L184.501,40.901 L184.501,52.407 L172.996,52.407 L172.996,64.325 L184.501,64.325 L184.501,75.916 L196.477,75.916 L196.477,64.325 L207.983,64.325 L207.983,52.407 L196.477,52.407"/>
    <path d="M45.599,52.263 L83.416,52.263 L83.416,64.555 L45.599,64.555 L45.599,52.263 Z"/>
  </g>
</svg>
